src/assets/img/square.svg

<svg viewBox="0.001 0 75.688 78.273" xmlns="http://www.w3.org/2000/svg">
  <path d="M 73.688 12.273 C 75.688 7.273 73.688 1.273 67.688 0.273 C 47.688 -0.727 27.688 1.273 8.688 2.273 C 4.688 2.273 2.688 5.273 3.688 8.273 L 1.688 12.273 C 1.688 31.273 -1.312 51.273 0.688 69.273 L 1.688 72.273 C 1.688 74.273 3.688 76.273 5.688 76.273 C 14.688 78.273 24.688 78.273 34.688 78.273 L 67.688 78.273 C 70.688 77.273 72.688 75.273 73.688 72.273 L 74.688 68.273 C 75.688 50.273 76.688 30.273 73.688 12.273 Z M 36.688 63.273 L 14.688 64.273 C 15.688 47.273 12.688 30.273 12.688 14.273 C 28.688 15.273 44.688 17.273 60.688 16.273 L 60.688 63.273 L 36.688 63.273 Z"/>
</svg>

<svg xmlns="http://www.w3.org/2000/svg" role="img" viewBox="0.001 0 75.688 78.273"><path d="M73.688 12.273c2-5 0-11-6-12-20-1-40 1-59 2-4 0-6 3-5 6l-2 4c0 19-3 39-1 57l1 3c0 2 2 4 4 4 9 2 19 2 29 2h33c3-1 5-3 6-6l1-4c1-18 2-38-1-56zm-37 51l-22 1c1-17-2-34-2-50 16 1 32 3 48 2v47h-24z"/></svg>
